dist/assets/images/producersColor/Yokogawa_logo 4.svg

<svg width="179" height="28" viewBox="0 0 179 28" fill="none" xmlns="http://www.w3.org/2000/svg">
<g clip-path="url(#clip0_351_1260)">
<path d="M165.256 26.684C168.21 20.92 172.504 16.5013 178.139 13.3827C178.139 13.3978 165.267 0.514665 165.267 0.5C158.824 6.96001 155.019 10.7227 152.387 13.3827C152.384 13.3827 152.412 13.3978 152.387 13.3827C157.835 16.352 162.068 20.6613 165.256 26.684Z" fill="#FFEE01"/>
<path d="M11.38 23.0318H8.46267V15.1719L0.5 3.88379H4.192L9.90133 12.3505L15.6507 3.89313H19.304L11.38 15.1065V23.0318Z" fill="#231F20"/>
<path d="M26.0844 3.31055C24.639 3.31055 16.707 3.95057 16.707 13.6039C16.707 22.6999 24.6497 23.5279 26.1724 23.5399C27.7724 23.5512 35.6204 22.6185 35.6204 13.3612C35.6204 4.58387 28.5577 3.31055 26.0844 3.31055ZM26.279 21.0132C23.4457 21.0132 19.6657 19.3626 19.6657 13.3999C19.6657 7.95456 23.2644 5.79057 26.0977 5.79057C28.6884 5.79057 32.647 7.48255 32.647 13.6492C32.647 19.7066 28.279 21.0132 26.279 21.0132Z" fill="#231F20"/>
<path d="M39.9743 23.0228H37.0703V3.87207L40.1543 3.87968V12.941L49.1797 3.88234H53.1436L45.1796 11.8717L53.7717 23.0143L50.037 23.0295L42.9436 13.6481L39.9743 16.4574V23.0228Z" fill="#231F20"/>
<path d="M60.6856 3.26172C57.9203 3.35658 51.043 4.76834 51.043 13.247C51.043 22.5777 58.4856 23.5204 60.7736 23.5083C63.3336 23.4932 70.0296 21.707 70.063 13.3177C70.1016 3.2657 60.5736 3.26304 60.6856 3.26172ZM60.6698 20.9911C57.8991 20.9911 54.0898 19.5084 54.0898 13.391C54.0898 7.54966 57.9151 5.78304 60.6044 5.78304C63.9804 5.78304 66.9951 8.28169 66.9951 13.2657C66.9951 19.7044 62.9071 20.9911 60.6698 20.9911Z" fill="#231F20"/>
<path d="M80.8568 12.9477L89.1568 12.9553L89.13 22.9287H86.83L86.4967 21.082C84.7007 22.8353 82.906 23.4446 80.0073 23.4366C75.8233 23.4291 71.25 20.1073 71.25 13.2927C71.25 8.66066 74.19 3.366 80.3353 3.39268C83.5913 3.39268 88.1247 4.47801 88.8927 9.51532L85.8847 9.52663C85.5047 8.25859 84.4247 5.77864 80.586 5.77864C77.4447 5.77864 74.338 7.69194 74.338 13.5186C74.338 19.032 77.7913 21.0733 80.4353 21.0733C83.0207 21.0733 85.4633 20.1933 86.45 15.588H80.87L80.8568 12.9466" fill="#231F20"/>
<path d="M99.5625 3.91113L95.6332 3.91869L89.5078 23.0147H92.6465L94.2732 17.7147L101.757 17.7071L103.865 22.9698L107.078 22.9395L99.5625 3.91113ZM95.0105 15.2445L97.6172 6.66048L98.1771 8.19909L100.786 15.2445H95.0105Z" fill="#231F20"/>
<path d="M103.551 3.88379H106.821C109.392 14.2771 109.9 16.1025 110.467 18.1331C110.917 16.2198 111.851 13.7131 114.368 3.88379H117.329C120.316 14.4798 120.761 16.1145 121.412 18.2478C121.865 16.4732 122.488 14.3598 125.04 3.88379H128.136L123.012 22.9771L119.947 23.0149C117.463 14.5389 117.157 13.5136 115.9 9.04955C114.865 12.6069 114.663 13.5282 112.004 22.9976H108.853L103.551 3.88425" fill="#231F20"/>
<path d="M135.606 3.85449H131.836L125.07 22.9852H128.093L129.833 17.8692L137.445 17.8767L139.3 22.9754L142.461 22.9679L135.606 3.85449ZM130.74 15.3359L133.685 6.85984L133.682 6.82132L136.65 15.3426L130.74 15.3359Z" fill="#231F20"/>
</g>
<defs>
<clipPath id="clip0_351_1260">
<rect width="178.638" height="27.184" fill="white"/>
</clipPath>
</defs>
</svg>

<svg width="179" height="28" fill="none" xmlns="http://www.w3.org/2000/svg"><g clip-path="url(#clip0_351_1260)"><path d="M165.256 26.684c2.954-5.764 7.248-10.183 12.883-13.301 0 .015-12.872-12.868-12.872-12.883-6.443 6.46-10.248 10.223-12.88 12.883-.003 0 .025.015 0 0 5.448 2.969 9.681 7.278 12.869 13.301z" fill="#FFEE01"/><path d="M11.38 23.032H8.463v-7.86L.5 3.884h3.692l5.71 8.466 5.749-8.457h3.653L11.38 15.106v7.926z" fill="#231F20"/><path d="M26.084 3.31c-1.445 0-9.377.64-9.377 10.294 0 9.096 7.943 9.924 9.465 9.936 1.6.011 9.448-.921 9.448-10.179 0-8.777-7.062-10.05-9.536-10.05zm.195 17.703c-2.833 0-6.613-1.65-6.613-7.613 0-5.445 3.598-7.61 6.432-7.61 2.59 0 6.549 1.693 6.549 7.86 0 6.057-4.368 7.363-6.368 7.363zm13.695 2.01H37.07V3.873l3.084.007v9.061l9.026-9.059h3.964l-7.964 7.99 8.592 11.142-3.735.015-7.093-9.38-2.97 2.808v6.566z" fill="#231F20"/><path d="M60.686 3.262c-2.766.095-9.643 1.506-9.643 9.985 0 9.33 7.443 10.273 9.73 10.261 2.56-.015 9.257-1.801 9.29-10.19.039-10.052-9.49-10.055-9.377-10.056zm-.016 17.73c-2.77 0-6.58-1.484-6.58-7.601 0-5.841 3.825-7.608 6.514-7.608 3.376 0 6.391 2.499 6.391 7.483 0 6.438-4.088 7.725-6.325 7.725zm20.187-8.044l8.3.007-.027 9.974h-2.3l-.333-1.847c-1.796 1.753-3.591 2.363-6.49 2.355-4.184-.008-8.757-3.33-8.757-10.144 0-4.632 2.94-9.927 9.085-9.9 3.256 0 7.79 1.085 8.558 6.122l-3.008.012c-.38-1.268-1.46-3.748-5.299-3.748-3.141 0-6.248 1.913-6.248 7.74 0 5.513 3.453 7.554 6.097 7.554 2.586 0 5.028-.88 6.015-5.485h-5.58l-.013-2.641m18.706-9.036l-3.93.008-6.125 19.096h3.139l1.626-5.3 7.484-.008 2.108 5.263 3.213-.03-7.516-19.03zM95.01 15.245l2.607-8.585.56 1.54 2.609 7.045H95.01zm8.541-11.361h3.27c2.571 10.393 3.079 12.218 3.646 14.25.45-1.914 1.384-4.42 3.901-14.25h2.961c2.987 10.596 3.432 12.23 4.083 14.364.453-1.775 1.076-3.888 3.628-14.364h3.096l-5.124 19.093-3.065.038c-2.484-8.476-2.79-9.501-4.047-13.965-1.035 3.557-1.237 4.478-3.896 13.948h-3.151l-5.302-19.114m32.055-.03h-3.77l-6.766 19.131h3.023l1.74-5.116 7.612.008 1.855 5.098 3.161-.007-6.855-19.114zm-4.866 11.482l2.945-8.476-.003-.039 2.968 8.522-5.91-.007z" fill="#231F20"/></g><defs><clipPath id="clip0_351_1260"><path fill="#fff" d="M0 0h178.638v27.184H0z"/></clipPath></defs></svg>
